tools/download-figma-icons/icons/outlined-medium/energy-fire.svg

<svg width="24" height="24" viewBox="0 0 24 24" fill="none" xmlns="http://www.w3.org/2000/svg">
<path fill-rule="evenodd" clip-rule="evenodd" d="M11.7998 12.8501C11.9363 12.8501 12.0728 12.8876 12.1943 12.9618C12.4628 13.1283 12.5978 13.4441 12.5341 13.753C12.1366 15.6595 13.1505 16.6555 14.223 17.71C14.8455 18.322 15.4335 18.8994 15.7252 19.6494C16.0545 20.4924 16.0155 21.3046 15.849 21.9796C17.4022 21.2356 19.5629 19.5384 19.4984 15.8703C19.4639 13.9263 18.2729 12.3348 16.7647 10.3211C15.2077 8.24066 13.305 5.70121 12.4118 2.06303C7.09141 6.23145 4.50021 10.7531 4.50021 15.8575C4.50021 19.5287 6.80042 21.2124 8.50588 21.9571C8.10689 21.0774 7.78215 19.9239 7.88864 18.6099C8.05664 16.5647 9.21612 14.6815 11.3356 13.0113C11.4713 12.9041 11.6348 12.8501 11.7998 12.8501ZM14.4555 23.998C14.1968 23.998 13.953 23.8652 13.8158 23.6395C13.6545 23.3755 13.6718 23.0402 13.8578 22.795C13.8735 22.774 14.8275 21.475 14.328 20.1948C14.1525 19.7441 13.6755 19.2753 13.1715 18.7796C12.3398 17.9613 11.2801 16.9204 11.0101 15.3416C10.0269 16.4156 9.48086 17.5518 9.38411 18.7323C9.19662 21.0145 10.7326 22.7252 10.7483 22.7425C10.9621 22.9765 11.0048 23.32 10.8571 23.5997C10.7086 23.8787 10.4003 24.0422 10.0868 23.9905C10.0156 23.98 3.00024 22.8805 3.00024 15.8576C3.00024 9.9515 6.09468 4.8111 12.4613 0.145449C12.6713 -0.00904803 12.945 -0.0412974 13.1858 0.0547007C13.4265 0.152199 13.599 0.366694 13.6433 0.623189C14.3175 4.55086 16.2555 7.13906 17.9662 9.42276C19.5029 11.4755 20.9549 13.4149 20.9984 15.8441C21.1191 22.72 14.655 23.974 14.5898 23.9867C14.5448 23.9942 14.4998 23.998 14.4555 23.998Z" fill="black"/>
</svg>

<svg xmlns="http://www.w3.org/2000/svg" width="24" height="24" fill="none" viewBox="0 0 24 24"><path fill="currentColor" fill-rule="evenodd" d="M11.8 12.85a.752.752 0 0 1 .734.903c-.397 1.906.616 2.903 1.689 3.957.622.612 1.21 1.19 1.502 1.94.33.842.29 1.655.124 2.33 1.553-.744 3.714-2.442 3.65-6.11-.035-1.944-1.226-3.535-2.734-5.549-1.557-2.08-3.46-4.62-4.353-8.258C7.092 6.231 4.5 10.753 4.5 15.858c0 3.67 2.3 5.354 4.006 6.1-.4-.88-.724-2.034-.617-3.348.168-2.045 1.327-3.928 3.447-5.599a.75.75 0 0 1 .464-.16m2.656 11.148a.75.75 0 0 1-.598-1.203c.015-.021.97-1.32.47-2.6-.175-.45-.652-.92-1.156-1.415-.832-.819-1.892-1.86-2.162-3.438-.983 1.074-1.53 2.21-1.626 3.39-.187 2.283 1.349 3.993 1.364 4.01a.751.751 0 0 1-.661 1.249C10.016 23.98 3 22.88 3 15.858 3 9.95 6.095 4.81 12.461.145a.75.75 0 0 1 1.182.478c.675 3.928 2.613 6.516 4.323 8.8 1.537 2.053 2.989 3.992 3.032 6.421.121 6.876-6.343 8.13-6.408 8.143a1 1 0 0 1-.134.011" clip-rule="evenodd"/></svg>
